public/assets/down.svg

<svg width="150" height="154" viewBox="0 0 150 154" fill="none" xmlns="http://www.w3.org/2000/svg">
<g clip-path="url(#clip0_34_1399)">
<path d="M147.92 78.8299C74.5299 54.4499 74.5499 5.45995 74.5499 5.45995C74.5499 5.45995 74.5499 54.0699 1.17993 78.8299C1.17993 78.8299 1.21993 81.74 1.30993 83.18C3.55993 121.68 35.4899 152.2 74.5499 152.2C113.75 152.2 145.77 121.46 147.82 82.77C147.89 81.47 147.92 78.8299 147.92 78.8299Z" stroke="#338A86" stroke-width="2.36" stroke-linecap="round" stroke-linejoin="round"/>
<path d="M74.55 113.33V-0.000167847" stroke="#AECC53" stroke-width="2.93" stroke-miterlimit="10"/>
<path d="M63.52 112.78C63.52 118.87 68.46 123.81 74.55 123.81C80.64 123.81 85.58 118.87 85.58 112.78C85.58 106.69 80.64 101.75 74.55 101.75C68.46 101.75 63.52 106.69 63.52 112.78Z" fill="#AECC53"/>
<path d="M110.68 92.3201C101.54 84.2301 93.6101 74.7901 87.2201 64.3901C81.0401 54.3401 76.4801 44.3901 74.5601 32.6401" stroke="#AECC53" stroke-width="1.5" stroke-miterlimit="10"/>
<path d="M106.82 96.42C109.19 98.44 112.75 98.15 114.77 95.78C116.79 93.41 116.5 89.85 114.13 87.83C111.76 85.81 108.2 86.1 106.18 88.47C104.16 90.84 104.45 94.4 106.81 96.42H106.82Z" fill="#AECC53"/>
<path d="M38.4202 92.3198C47.5602 84.2298 55.4902 74.7898 61.8802 64.3898C68.0602 54.3398 72.6202 44.3898 74.5402 32.6398" stroke="#AECC53" stroke-width="1.5" stroke-miterlimit="10"/>
<path d="M34.9701 87.8399C32.6001 89.8599 32.3201 93.4199 34.3301 95.7899C36.3501 98.1599 39.9101 98.4399 42.2801 96.4299C44.6501 94.4099 44.9301 90.8499 42.9201 88.4799C40.9001 86.1099 37.3401 85.8299 34.9701 87.8399Z" fill="#AECC53"/>
</g>
<defs>
<clipPath id="clip0_34_1399">
<rect width="149.1" height="153.38" fill="white" transform="matrix(1 0 0 -1 0 153.38)"/>
</clipPath>
</defs>
</svg>

<svg xmlns="http://www.w3.org/2000/svg" width="150" height="154" fill="none" viewBox="0 0 150 154"><g clip-path="url(#a)"><path stroke="#338a86" stroke-linecap="round" stroke-linejoin="round" stroke-width="2.36" d="M147.92 78.83C74.53 54.45 74.55 5.46 74.55 5.46s0 48.61-73.37 73.37c0 0 .04 2.91.13 4.35 2.25 38.5 34.18 69.02 73.24 69.02 39.2 0 71.22-30.74 73.27-69.43.07-1.3.1-3.94.1-3.94"/><path stroke="#aecc53" stroke-miterlimit="10" stroke-width="2.93" d="M74.55 113.33V0"/><path fill="#aecc53" d="M63.52 112.78c0 6.09 4.94 11.03 11.03 11.03s11.03-4.94 11.03-11.03-4.94-11.03-11.03-11.03-11.03 4.94-11.03 11.03"/><path stroke="#aecc53" stroke-miterlimit="10" stroke-width="1.5" d="M110.68 92.32a124.2 124.2 0 0 1-23.46-27.93c-6.18-10.05-10.74-20-12.66-31.75"/><path fill="#aecc53" d="M106.82 96.42a5.64 5.64 0 1 0-.64-7.95 5.65 5.65 0 0 0 .63 7.95z"/><path stroke="#aecc53" stroke-miterlimit="10" stroke-width="1.5" d="M38.42 92.32c9.14-8.09 17.07-17.53 23.46-27.93 6.18-10.05 10.74-20 12.66-31.75"/><path fill="#aecc53" d="M34.97 87.84a5.65 5.65 0 0 0-.64 7.95 5.65 5.65 0 0 0 7.95.64 5.65 5.65 0 0 0 .64-7.95 5.65 5.65 0 0 0-7.95-.64"/></g><defs><clipPath id="a"><path fill="#fff" d="M0 153.38h149.1V0H0z"/></clipPath></defs></svg>
